svg/alert_minus_outline.svg

<svg xmlns="http://www.w3.org/2000/svg" viewBox="0 0 24 24"><path d="M11 15.5h2v2h-2zm3 3.5v-.4H5.4L12 7.3l4.11 7.14c.51-.44 1.09-.79 1.73-1.03L12 3.3 2 20.6h12.22c-.14-.51-.22-1.04-.22-1.6m-1-8.5h-2v4h2zm3 7.5v2h8v-2z"/></svg>

<?xml version="1.0" encoding="UTF-8"?><!DOCTYPE svg PUBLIC "-//W3C//DTD SVG 1.1//EN" "http://www.w3.org/Graphics/SVG/1.1/DTD/svg11.dtd"><svg xmlns="http://www.w3.org/2000/svg" xmlns:xlink="http://www.w3.org/1999/xlink" version="1.1" id="mdi-alert-minus-outline" width="24" height="24" viewBox="0 0 24 24"><path d="M11 15.5H13V17.5H11V15.5M14 19C14 18.86 14 18.73 14 18.6H5.4L12 7.3L16.11 14.44C16.62 14 17.2 13.65 17.84 13.41L12 3.3L2 20.6H14.22C14.08 20.09 14 19.56 14 19M13 10.5H11V14.5H13V10.5M16 18V20H24V18H16Z" /></svg>
